X: 9780
T: Denis Dillon's
R: polka
M: 2/4
K: Edorian
F/E/|:DB, B,A,-|A,B, B,2|FE/F/ AF|BA A>E|
DB, B,A,-|A,B, B,2|FE/F/ BA|FE E2:|
|:fg/f/ ed|BA de|fe/f/ af|ba ab|
fg/f/ ed|BA d>B|AF dA|FE E2:|

